packages/core/src/svgs/tokens/mono/RVST.svg

<svg width="24" height="24" viewBox="0 0 24 24" fill="none" xmlns="http://www.w3.org/2000/svg">
<path d="M9.7635 6.86304C10.4489 6.579 11.1836 6.43275 11.9255 6.43262C12.6674 6.43249 13.4021 6.57849 14.0875 6.8623C14.7729 7.1461 15.3958 7.56214 15.9205 8.08666C16.4452 8.61118 16.8616 9.2339 17.1456 9.91934C17.4296 10.6046 17.5758 11.3393 17.5759 12.0812C17.5761 12.8231 17.4302 13.5578 17.1463 14.2432C16.8625 14.9288 16.4464 15.5517 15.9219 16.0764C15.3975 16.6011 14.7747 17.0173 14.0893 17.3013C12.7051 17.8749 11.1497 17.8752 9.76528 17.3021C8.38092 16.7289 7.28091 15.6293 6.70727 14.2451C6.13364 12.8608 6.13337 11.3055 6.70653 9.92112C7.27969 8.53668 8.37933 7.43667 9.7635 6.86304ZM11.9265 7.30385C11.2989 7.30385 10.6775 7.42744 10.0978 7.66757C9.51815 7.9077 8.99133 8.25967 8.54762 8.70339C8.10392 9.14709 7.75195 9.67386 7.51182 10.2535C7.27167 10.8334 7.14808 11.4546 7.14808 12.0822C7.14808 12.7097 7.27167 13.3311 7.51182 13.9108C7.75195 14.4905 8.10392 15.0172 8.54762 15.461C8.99133 15.9047 9.51815 16.2567 10.0978 16.4968C10.6775 16.737 11.2989 16.8605 11.9265 16.8605C13.1938 16.8605 14.4091 16.3571 15.3052 15.461C16.2014 14.5648 16.7048 13.3495 16.7048 12.0822C16.7048 10.8149 16.2014 9.59953 15.3052 8.70339C14.4091 7.80728 13.1938 7.30385 11.9265 7.30385Z" fill="white"/>
<path d="M4.86127 5.01753C5.78504 4.07198 6.88727 3.31914 8.10409 2.80262C9.32086 2.2861 10.6281 2.01616 11.95 2.00847C13.2719 2.00078 14.5822 2.25546 15.805 2.75777C17.0277 3.26009 18.1387 4.00004 19.0733 4.93477C20.008 5.8695 20.748 6.98043 21.2504 8.20318C21.7527 9.42591 22.0074 10.7361 21.9997 12.058C21.9919 13.3799 21.722 14.6871 21.2055 15.904C20.6889 17.1208 19.9362 18.223 18.9906 19.1468C17.1096 20.9846 14.5798 22.0067 11.95 21.9913C9.32031 21.976 6.8026 20.9245 4.94307 19.065C3.08354 17.2054 2.03208 14.6878 2.01677 12.058C2.00145 9.42838 3.02351 6.89861 4.86127 5.01753ZM11.926 2.96044C9.50668 2.96044 7.18652 3.92149 5.47587 5.63214C3.76521 7.3428 2.80417 9.66289 2.80417 12.0822C2.80417 14.5015 3.76521 16.8216 5.47587 18.5323C7.18652 20.2429 9.50668 21.2039 11.926 21.2039C14.3451 21.2039 16.6654 20.2429 18.3759 18.5323C20.0866 16.8216 21.0477 14.5015 21.0477 12.0822C21.0477 9.66289 20.0866 7.3428 18.3759 5.63214C16.6654 3.92149 14.3451 2.96044 11.926 2.96044Z" fill="white"/>
<path d="M8.13611 3.73591C8.02999 3.72505 7.93156 3.67558 7.85954 3.5969C7.78751 3.51821 7.74692 3.41581 7.74546 3.30914C7.74402 3.20249 7.7818 3.09902 7.85166 3.01841C7.92152 2.93778 8.01858 2.88566 8.12435 2.87193L8.13024 3.30685V2.87193C8.16744 2.87049 8.20469 2.87049 8.2419 2.87193C8.31243 2.87193 8.41823 2.87193 8.54165 2.88368C10.0247 2.96673 11.4777 3.33596 12.8204 3.97101C13.9958 4.53523 15.1948 5.40509 16.0883 6.71575C16.9875 8.03817 17.5752 9.78377 17.5752 12.0818C17.5752 12.139 17.5639 12.1955 17.5421 12.2483C17.5203 12.3011 17.4882 12.349 17.4478 12.3894C17.4075 12.4297 17.3595 12.4618 17.3068 12.4836C17.254 12.5056 17.1974 12.5168 17.1403 12.5168C17.0831 12.5168 17.0266 12.5056 16.9738 12.4836C16.9212 12.4618 16.8732 12.4297 16.8327 12.3894C16.7924 12.349 16.7603 12.3011 16.7385 12.2483C16.7167 12.1955 16.7054 12.139 16.7054 12.0818C16.7054 9.93654 16.1647 8.36731 15.3712 7.20358C14.6298 6.14183 13.6197 5.29604 12.4442 4.7527C11.1003 4.12004 9.63877 3.77568 8.15374 3.74178H8.13611V3.73591ZM17.3401 3.99451C17.5517 3.87696 17.8104 3.94749 17.9279 4.15908L17.5517 4.37066L17.9338 4.15908V4.16495C18.0048 4.28189 18.0676 4.40366 18.1218 4.52936C18.7686 5.87571 19.1591 7.33063 19.2738 8.81987C19.3679 10.1306 19.2151 11.6058 18.545 13.034C17.8691 14.4739 16.6819 15.8493 14.7482 16.9718C14.6991 17.0066 14.6434 17.0308 14.5844 17.043C14.5255 17.055 14.4647 17.0548 14.4059 17.0423C14.347 17.0297 14.2915 17.005 14.2427 16.9699C14.1939 16.9348 14.1529 16.8899 14.1223 16.8381C14.0917 16.7863 14.0722 16.7287 14.065 16.669C14.0578 16.6093 14.063 16.5487 14.0805 16.4911C14.0979 16.4335 14.1269 16.3802 14.166 16.3345C14.2051 16.2887 14.2532 16.2515 14.3074 16.2254C16.1059 15.1793 17.1638 13.9332 17.7574 12.6696C18.2946 11.4844 18.5173 10.1808 18.4039 8.88452C18.2873 7.38627 17.8695 5.92696 17.1756 4.59401V4.58814C17.1473 4.53837 17.1292 4.48351 17.1221 4.42672C17.1151 4.36993 17.1193 4.31231 17.1347 4.25716C17.1499 4.20202 17.176 4.15043 17.2112 4.10536C17.2465 4.06029 17.2903 4.02261 17.3401 3.99451ZM2.82293 11.259C2.83729 11.2328 2.85298 11.2073 2.86994 11.1826L3.01101 10.9357C3.73723 9.73083 4.68677 8.67551 5.80865 7.82658C6.84236 7.04497 8.07836 6.57585 9.37039 6.47478C10.7633 6.38661 12.409 6.74514 14.2956 7.93238C14.3439 7.96575 14.3983 7.98901 14.4558 8.00079C14.5133 8.01257 14.5725 8.01259 14.63 8.0009C14.6874 7.98919 14.7419 7.96598 14.7901 7.93268C14.8384 7.89937 14.8794 7.85665 14.9108 7.80708C14.9421 7.7575 14.9631 7.70211 14.9724 7.64423C14.9819 7.58634 14.9794 7.52715 14.9653 7.47024C14.9511 7.41331 14.9258 7.35982 14.8905 7.31299C14.8552 7.26616 14.8107 7.22694 14.76 7.1977C12.7381 5.92818 10.9161 5.50501 9.31156 5.6108C7.85688 5.72135 6.46406 6.24543 5.29731 7.1213C3.95469 8.11415 2.84704 9.39031 2.05299 10.8594V10.8653L2.43502 11.0651L2.04711 10.8653C2.02125 10.9161 2.00568 10.9717 2.00129 11.0286C1.9969 11.0856 2.00376 11.1428 2.0215 11.1971C2.03923 11.2514 2.0675 11.3018 2.10466 11.3451C2.14183 11.3886 2.18718 11.4241 2.23813 11.45C2.28906 11.4759 2.3446 11.4914 2.40156 11.4958C2.45851 11.5002 2.51578 11.4934 2.57009 11.4757C2.62439 11.4578 2.67467 11.4296 2.71805 11.3924C2.76144 11.3553 2.79707 11.31 2.82293 11.259ZM9.69952 7.35051C9.82295 7.56211 9.74656 7.82071 9.54085 7.93825C7.70118 8.97855 6.62561 10.2129 6.02612 11.4706C5.48245 12.6516 5.26141 13.9556 5.38548 15.2497C5.51742 16.7528 5.95546 18.2128 6.67263 19.5403L6.6785 19.5578C6.73697 19.6577 6.7534 19.7766 6.72418 19.8885C6.69497 20.0003 6.62252 20.096 6.52275 20.1544C6.423 20.213 6.3041 20.2293 6.19222 20.2001C6.08034 20.1709 5.98466 20.0985 5.9262 19.9988L6.30236 19.7754L5.9262 19.9929V19.987L5.91444 19.9693C5.84936 19.8541 5.78858 19.7364 5.73224 19.6167C5.06518 18.2701 4.6546 16.8112 4.5215 15.3145C4.38693 13.8705 4.63632 12.4167 5.24442 11.1003C5.9262 9.66624 7.13695 8.30266 9.11176 7.18595C9.32335 7.0684 9.582 7.1448 9.69952 7.35051ZM6.73141 11.6469C6.97238 11.6586 7.16045 11.8643 7.14283 12.0995C7.04878 14.2448 7.54248 15.8023 8.31831 16.9543C9.06294 18.0211 10.0882 18.8612 11.2805 19.3816C12.6903 20.0207 14.2172 20.3609 15.7649 20.3807H15.7826C15.8889 20.3908 15.9878 20.4395 16.0605 20.5177C16.133 20.596 16.1744 20.6982 16.1766 20.8049C16.1788 20.9116 16.1417 21.0154 16.0723 21.0966C16.0029 21.1776 15.9061 21.2304 15.8003 21.2447L15.7885 20.8098L15.7944 21.2447H15.7885C15.7512 21.2456 15.7141 21.2456 15.6769 21.2447C15.6004 21.2447 15.5005 21.2447 15.3594 21.233C13.8263 21.1536 12.3205 20.7951 10.9161 20.175C9.57761 19.586 8.42832 18.6381 7.59539 17.4362C6.70789 16.1137 6.17305 14.3623 6.27885 12.0643C6.2906 11.8232 6.49631 11.6352 6.73141 11.6528V11.6469ZM21.6013 12.7048C21.8246 12.8165 21.9128 13.0751 21.807 13.2926V13.2985C21.7446 13.4252 21.6759 13.5488 21.6013 13.6688C20.8428 14.9735 19.8389 16.1192 18.6449 17.0424C17.495 17.9289 16.113 18.4637 14.6659 18.5822C13.0732 18.6939 11.2452 18.2824 9.20582 17.0306C9.15298 17.0031 9.10641 16.9649 9.06894 16.9186C9.03148 16.8722 9.00394 16.8188 8.98802 16.7613C8.9721 16.7038 8.96815 16.6438 8.9764 16.5848C8.98466 16.5258 9.00494 16.4692 9.03602 16.4183C9.06708 16.3674 9.10826 16.3235 9.157 16.2893C9.20568 16.255 9.26095 16.2311 9.31937 16.219C9.37766 16.2071 9.43786 16.2071 9.49628 16.2193C9.55457 16.2315 9.6097 16.2557 9.65838 16.2901C11.5685 17.4655 13.22 17.8123 14.6072 17.7124C15.8877 17.607 17.1103 17.1335 18.1277 16.3488C19.3365 15.4316 20.3261 14.2571 21.0253 12.9106C21.0503 12.8593 21.0853 12.8133 21.1281 12.7755C21.171 12.7376 21.2208 12.7087 21.2748 12.69C21.3288 12.6715 21.386 12.6638 21.4431 12.6674C21.5 12.6708 21.5558 12.6856 21.6071 12.7107L21.6013 12.7048ZM10.4694 10.3186H12.3208L12.0035 9.73083H10.4753V10.3186H10.4694ZM12.168 9.74263L12.2562 9.91899C12.2871 9.96699 12.3164 10.0159 12.3444 10.0659L12.3913 10.154C12.4187 10.2042 12.4482 10.2532 12.4795 10.3009C12.5066 10.3513 12.536 10.4003 12.5677 10.4479L12.6676 10.6184L12.6911 10.6595C12.7366 10.7476 12.7856 10.8338 12.8381 10.918C12.8792 11.0003 12.932 11.0357 12.9438 10.9887C12.9438 10.9769 12.9673 10.9298 13.0027 10.8887C13.021 10.8588 13.0368 10.8274 13.0496 10.7946L13.0907 10.7359L13.1261 10.6771L13.1848 10.5773C13.3082 10.3657 13.3729 10.2304 13.3729 10.1893C13.3729 10.154 13.32 10.0952 13.22 10.0188C13.1025 9.93654 13.1025 9.93065 12.9909 9.87785C12.8805 9.82313 12.7642 9.78171 12.6441 9.75442C12.4862 9.73385 12.3267 9.72987 12.168 9.74263ZM13.461 10.348C13.4544 10.3593 13.4485 10.3711 13.4434 10.3832L13.4141 10.442C13.399 10.4607 13.3852 10.4803 13.3729 10.5009L13.32 10.5948L13.2612 10.683L13.2436 10.7359C13.1692 10.8428 13.1024 10.9547 13.0438 11.071C13.0319 11.0873 13.022 11.1051 13.0143 11.1238L12.9791 11.1826C12.9656 11.2011 12.9537 11.2207 12.9438 11.2414C12.9438 11.2472 12.9261 11.2883 12.8968 11.3295C12.8592 11.3838 12.8259 11.4407 12.797 11.4999C12.7476 11.5789 12.7006 11.6593 12.6558 11.7409L12.597 11.8468C12.5677 11.9055 12.5854 11.9055 12.7147 11.9172L13.1672 11.929C13.561 11.929 13.5198 11.9408 13.6021 11.7586C13.6962 11.547 13.7196 11.406 13.7196 11.1591C13.7305 10.9148 13.6778 10.6717 13.5669 10.4538C13.508 10.3421 13.4846 10.3186 13.461 10.348ZM10.5811 10.4361C10.5342 10.442 10.5047 10.4479 10.493 10.4655C10.4753 10.9002 10.4715 11.3354 10.4812 11.7704C10.4871 11.9055 10.493 11.9231 10.5106 11.9231C10.5283 11.9231 10.5458 11.8997 10.5694 11.8586C10.6611 11.6826 10.7592 11.5101 10.8633 11.3413L10.9044 11.2767L10.9279 11.2355C11.0361 11.0629 11.138 10.8865 11.2336 10.7066L11.2688 10.6477L11.3216 10.5537C11.3687 10.4714 11.3745 10.4655 11.357 10.4538C11.3452 10.442 10.734 10.4302 10.5811 10.442V10.4361ZM11.0102 11.359L10.4812 12.2582V14.4328H11.3393V12.6696H11.7625L11.0807 11.3824C11.0807 11.3706 11.0395 11.3354 11.0279 11.3354L11.0102 11.359ZM11.645 12.0818L12.8792 14.4328H13.8608L12.8263 12.505L13.3964 12.0818H11.645Z" fill="white"/>
</svg>

<svg xmlns="http://www.w3.org/2000/svg" width="24" height="24" fill="none" viewBox="0 0 24 24">
    <path fill="#fff" d="M9.764 6.863a5.65 5.65 0 1 1 4.325 10.44 5.65 5.65 0 0 1-4.325-10.44m2.163.44a4.778 4.778 0 1 0 0 9.558 4.778 4.778 0 0 0 0-9.557"/>
    <path fill="#fff" d="M4.861 5.018a9.991 9.991 0 1 1 14.294 13.964A9.991 9.991 0 0 1 4.86 5.018m7.065-2.058a9.122 9.122 0 1 0 0 18.244 9.122 9.122 0 0 0 0-18.244"/>
    <path fill="#fff" d="M8.136 3.736a.435.435 0 0 1-.012-.864l.006.435v-.435q.056-.003.112 0a11.5 11.5 0 0 1 4.579 1.1c1.175.563 2.374 1.433 3.267 2.744.9 1.322 1.487 3.068 1.487 5.366a.436.436 0 0 1-.742.307.44.44 0 0 1-.128-.307c0-2.145-.54-3.715-1.334-4.878a7.3 7.3 0 0 0-2.927-2.451 10.6 10.6 0 0 0-4.29-1.011h-.018zm9.204.259a.427.427 0 0 1 .588.164l-.376.212.382-.212v.006q.106.176.188.364a12 12 0 0 1 1.152 4.29c.094 1.312-.059 2.787-.729 4.215-.676 1.44-1.863 2.815-3.797 3.938a.436.436 0 1 1-.44-.747c1.798-1.046 2.856-2.292 3.45-3.555a7.57 7.57 0 0 0 .646-3.785 11.2 11.2 0 0 0-1.228-4.291v-.006a.436.436 0 0 1 .164-.593M2.823 11.259l.047-.076.141-.247a11.1 11.1 0 0 1 2.798-3.11 6.8 6.8 0 0 1 3.561-1.35c1.393-.088 3.039.27 4.926 1.457a.435.435 0 1 0 .464-.734c-2.022-1.27-3.844-1.693-5.448-1.587a7.65 7.65 0 0 0-4.015 1.51 11.4 11.4 0 0 0-3.244 3.738v.006l.382.2-.388-.2a.434.434 0 0 0 .671.527.4.4 0 0 0 .105-.133M9.7 7.351a.425.425 0 0 1-.16.587c-1.839 1.04-2.914 2.275-3.514 3.533a7.36 7.36 0 0 0-.64 3.779c.131 1.503.57 2.963 1.287 4.29l.005.018a.436.436 0 0 1-.752.44l.376-.223-.376.218v-.006l-.012-.018a12.1 12.1 0 0 1-1.393-4.655 8.2 8.2 0 0 1 .723-4.214c.682-1.434 1.893-2.797 3.868-3.914a.43.43 0 0 1 .588.165m-2.97 4.296a.43.43 0 0 1 .412.453c-.094 2.145.4 3.702 1.175 4.854a7.05 7.05 0 0 0 2.963 2.428c1.41.639 2.936.979 4.484.999h.018a.436.436 0 0 1 .017.864l-.011-.435.005.435h-.117c-.077 0-.176 0-.318-.012a12.6 12.6 0 0 1-4.443-1.058 7.9 7.9 0 0 1-3.32-2.739c-.888-1.322-1.423-3.074-1.317-5.372a.43.43 0 0 1 .452-.411zm14.87 1.058c.224.111.312.37.206.588v.006a4 4 0 0 1-.206.37 11.7 11.7 0 0 1-2.956 3.373 7.5 7.5 0 0 1-3.98 1.54c-1.592.112-3.42-.3-5.46-1.551a.434.434 0 1 1 .453-.74c1.91 1.174 3.562 1.521 4.95 1.421a6.66 6.66 0 0 0 3.52-1.363 10.2 10.2 0 0 0 2.897-3.438.434.434 0 0 1 .582-.2zm-11.13-2.386h1.852l-.317-.588h-1.529v.588zm1.699-.576.088.176q.046.072.088.147l.047.088q.042.076.088.147.041.076.089.147l.1.17.023.041q.069.133.147.259c.041.082.094.118.106.07 0-.011.023-.058.059-.1a1 1 0 0 0 .047-.093l.04-.06.036-.058.059-.1c.123-.211.188-.347.188-.388q-.002-.054-.153-.17c-.118-.082-.118-.088-.23-.141a1.6 1.6 0 0 0-.346-.124 2.3 2.3 0 0 0-.476-.011m1.293.605-.018.035-.029.059-.041.059-.053.094-.059.088-.017.053a3 3 0 0 0-.2.335.3.3 0 0 0-.03.053l-.035.059a.4.4 0 0 0-.035.058.3.3 0 0 1-.047.088q-.057.083-.1.17-.074.12-.141.242l-.059.106c-.03.059-.012.059.118.07l.452.012c.394 0 .353.012.435-.17.094-.212.118-.353.118-.6a1.4 1.4 0 0 0-.153-.705c-.059-.112-.082-.135-.106-.106m-2.88.088c-.047.006-.076.012-.088.03q-.026.652-.012 1.304c.006.136.012.153.03.153q.024-.001.058-.064.138-.264.294-.518l.041-.064.024-.041q.162-.26.306-.53l.035-.058.053-.094c.047-.083.053-.088.035-.1a8 8 0 0 0-.776-.012zm.43.923-.53.9v2.174h.858V12.67h.423l-.681-1.288c0-.011-.041-.047-.053-.047zm.634.723 1.234 2.35h.982l-1.035-1.927.57-.423z"/>
</svg>
